X:342
T:The Irish Lady.
T:Aniseed water Robin.
C:John Malchair's Third Collection of Tunes
F:https://www.vwml.org/record/Malchair/3619/p34
F:www.vwml.org/topics/historic-dance-and-tune-books/Malchair
Z:Eric Conrad Jan 2020
N:NB1 MS has explicit repeats for both parts.
N:NB3 MS has triplet with twice this length.
N:NB4 MS has stemless quarter, assuming 1/2.
N:NB5 MS is misbarred from here to end of tune.  Note lengths here are merely a guess.
M:3/4 % MS has 6/4, but barring suggests 3/4
L:1/4
W:1665 & 1652.
K:Ddor
P:A
|: "_NB1,3"(3D/E/F/ | EFG | "_NB4"c2c | "_NB4"c2d | \
e>fe/d/ | cde/d/ | cAA | A>A :|
P:B
|: A | FFF | F>ED | fff | f>ed | \
% For rest of tune, MS has three measures that violate barring constraints:
%    [M:5/4 (?)] efg3/2f/e/f/ | [M:2/4 (?)] dA | [M:5/8 (???)] d3/2 :|
% The following substitution is pure conjecture. 
"_NB5"efg- | g/f/ef | ddA | d2 :|

